static/logos/companies.tools-glyph-color.svg

<svg width="100" height="50" viewBox="0 0 100 50" fill="none" xmlns="http://www.w3.org/2000/svg">
<path d="M47.5 20.1681C47.5 13.1086 47.5 9.57882 48.8741 6.88245C50.0825 4.51068 52.0109 2.58235 54.3825 1.37387C57.0788 0 60.6085 0 67.6679 0H77.3321C84.3915 0 87.9212 0 90.6175 1.37387C92.9891 2.58235 94.9175 4.51068 96.1259 6.88245C97.5 9.57882 97.5 13.1086 97.5 20.1681V29.8319C97.5 36.8914 97.5 40.4212 96.1259 43.1175C94.9175 45.4893 92.9891 47.4175 90.6175 48.6259C87.9212 50 84.3915 50 77.3321 50H67.6679C60.6085 50 57.0788 50 54.3825 48.6259C52.0109 47.4175 50.0825 45.4893 48.8741 43.1175C47.5 40.4212 47.5 36.8914 47.5 29.8319V20.1681Z" fill="white"/>
<path fill-rule="evenodd" clip-rule="evenodd" d="M77.3321 2.94117H67.6679C64.0896 2.94117 61.583 2.94346 59.6288 3.10314C57.7085 3.26001 56.5821 3.55401 55.7179 3.99448C53.8995 4.92099 52.4208 6.39939 51.4943 8.21774C51.0538 9.08222 50.7599 10.2086 50.6033 12.1286C50.4434 14.083 50.441 16.5898 50.441 20.1681V29.8319C50.441 33.4102 50.4434 35.917 50.6033 37.8714C50.7599 39.7914 51.0538 40.9178 51.4943 41.7823C52.4208 43.6006 53.8995 45.079 55.7179 46.0055C56.5821 46.446 57.7085 46.74 59.6288 46.8968C61.583 47.0566 64.0896 47.0588 67.6679 47.0588H77.3321C80.9104 47.0588 83.417 47.0566 85.3712 46.8968C87.2915 46.74 88.4179 46.446 89.2821 46.0055C91.1005 45.079 92.5788 43.6006 93.5057 41.7823C93.9458 40.9178 94.2401 39.7914 94.3967 37.8714C94.5566 35.917 94.559 33.4102 94.559 29.8319V20.1681C94.559 16.5898 94.5566 14.083 94.3967 12.1286C94.2401 10.2086 93.9458 9.08222 93.5057 8.21774C92.5788 6.39939 91.1005 4.92099 89.2821 3.99448C88.4179 3.55401 87.2915 3.26001 85.3712 3.10314C83.417 2.94346 80.9104 2.94117 77.3321 2.94117ZM48.8741 6.88245C47.5 9.57882 47.5 13.1086 47.5 20.1681V29.8319C47.5 36.8914 47.5 40.4212 48.8741 43.1175C50.0825 45.4893 52.0109 47.4175 54.3825 48.6259C57.0788 50 60.6085 50 67.6679 50H77.3321C84.3915 50 87.9212 50 90.6175 48.6259C92.9891 47.4175 94.9175 45.4893 96.1259 43.1175C97.5 40.4212 97.5 36.8914 97.5 29.8319V20.1681C97.5 13.1086 97.5 9.57882 96.1259 6.88245C94.9175 4.51068 92.9891 2.58235 90.6175 1.37387C87.9212 0 84.3915 0 77.3321 0H67.6679C60.6085 0 57.0788 0 54.3825 1.37387C52.0109 2.58235 50.0825 4.51068 48.8741 6.88245Z" fill="black"/>
<path d="M76.1173 44.0651C78.1084 44.0651 79.2796 43.7738 80.2754 43.4242V39.3455C79.2211 39.7534 78.0499 39.9865 76.5272 39.9865C74.0678 39.9865 72.7211 38.5298 72.7211 35.5582V17.2624H79.8654V13.1837H72.7211V6.25H67.8607V13.1837H63.4688V17.2624H67.8607V36.0243C67.8607 40.8022 70.5541 44.0651 76.1173 44.0651Z" fill="black"/>
<path fill-rule="evenodd" clip-rule="evenodd" d="M50 25C50 38.8071 38.8071 50 25 50C11.1929 50 0 38.8071 0 25C0 11.1929 11.1929 0 25 0C38.8071 0 50 11.1929 50 25ZM41.5966 31.5966C40.2027 40.8403 33.8464 45.3782 24.9253 45.3782C13.3836 45.3782 6.3025 37.423 6.3025 25.098V24.6499C6.3025 12.7731 14.22 4.20166 25.0368 4.20166C33.3446 4.20166 40.37 8.62745 41.2063 17.3109H36.4112C35.4076 11.2045 31.895 8.06722 25.0926 8.06722C16.8406 8.06722 11.3207 14.5098 11.3207 24.5938V25.042C11.3207 35.2381 16.4503 41.4006 25.0368 41.4006C31.5604 41.4006 36.0767 38.0952 37.0803 31.5966H41.5966Z" fill="black"/>
</svg>

<svg xmlns="http://www.w3.org/2000/svg" width="128" height="64" fill="none" viewBox="0 0 100 50"><path fill="#fff" d="M47.5 20.168c0-7.06 0-10.59 1.374-13.286a12.605 12.605 0 0 1 5.508-5.508C57.08 0 60.61 0 67.668 0h9.664c7.06 0 10.59 0 13.286 1.374a12.605 12.605 0 0 1 5.508 5.508C97.5 9.58 97.5 13.11 97.5 20.168v9.664c0 7.06 0 10.59-1.374 13.285a12.604 12.604 0 0 1-5.508 5.509C87.92 50 84.39 50 77.332 50h-9.664c-7.06 0-10.59 0-13.286-1.374a12.604 12.604 0 0 1-5.508-5.508C47.5 40.42 47.5 36.89 47.5 29.831v-9.664Z"/><path fill="#000" fill-rule="evenodd" d="M77.332 2.941h-9.664c-3.578 0-6.085.002-8.04.162-1.92.157-3.046.451-3.91.891a9.665 9.665 0 0 0-4.224 4.224c-.44.864-.734 1.99-.89 3.91-.16 1.955-.163 4.462-.163 8.04v9.664c0 3.578.002 6.085.162 8.04.157 1.92.45 3.046.891 3.91a9.665 9.665 0 0 0 4.224 4.224c.864.44 1.99.734 3.91.89 1.955.16 4.462.163 8.04.163h9.664c3.578 0 6.085-.002 8.04-.162 1.92-.157 3.046-.451 3.91-.892a9.667 9.667 0 0 0 4.224-4.223c.44-.864.734-1.99.89-3.91.16-1.955.163-4.462.163-8.04v-9.664c0-3.578-.002-6.085-.162-8.04-.157-1.92-.451-3.046-.891-3.91a9.667 9.667 0 0 0-4.224-4.224c-.864-.44-1.99-.734-3.91-.89-1.955-.16-4.462-.163-8.04-.163ZM48.874 6.882C47.5 9.58 47.5 13.11 47.5 20.168v9.664c0 7.06 0 10.59 1.374 13.285a12.604 12.604 0 0 0 5.508 5.509C57.08 50 60.61 50 67.668 50h9.664c7.06 0 10.59 0 13.286-1.374a12.604 12.604 0 0 0 5.508-5.508C97.5 40.42 97.5 36.89 97.5 29.831v-9.664c0-7.06 0-10.59-1.374-13.286a12.605 12.605 0 0 0-5.508-5.508C87.92 0 84.39 0 77.332 0h-9.664c-7.06 0-10.59 0-13.286 1.374a12.605 12.605 0 0 0-5.508 5.508Z" clip-rule="evenodd"/><path fill="#000" d="M76.117 44.065c1.991 0 3.163-.291 4.158-.64v-4.08c-1.054.408-2.225.642-3.748.642-2.46 0-3.806-1.457-3.806-4.429V17.262h7.144v-4.078h-7.144V6.25h-4.86v6.934h-4.392v4.078h4.392v18.762c0 4.778 2.693 8.041 8.256 8.041Z"/><path fill="#000" fill-rule="evenodd" d="M50 25c0 13.807-11.193 25-25 25S0 38.807 0 25 11.193 0 25 0s25 11.193 25 25Zm-8.403 6.597c-1.394 9.243-7.75 13.781-16.672 13.781-11.541 0-18.622-7.955-18.622-20.28v-.448c0-11.877 7.917-20.448 18.734-20.448 8.308 0 15.333 4.425 16.17 13.109H36.41c-1.003-6.107-4.516-9.244-11.318-9.244-8.252 0-13.772 6.443-13.772 16.527v.448c0 10.196 5.13 16.359 13.716 16.359 6.523 0 11.04-3.306 12.043-9.804h4.517Z" clip-rule="evenodd"/></svg>
